app/dist/common/images/five-star.svg

<svg height="18" viewBox="0 0 18 18" width="18" xmlns="http://www.w3.org/2000/svg"><path d="m0 0h18v18h-18z" fill="#f0f3fa"/><path d="m11.03 11.54-1.53-.01 1.25.94-.49 1.53 1.24-.95 1.24.95-.49-1.53 1.25-.94h-1.53l-.47-1.53zm-5 0-1.53-.01 1.25.94-.49 1.53 1.24-.95 1.24.95-.49-1.53 1.25-.94h-1.53l-.47-1.53zm-1.5-4-1.53-.01 1.25.94-.49 1.53 1.24-.95 1.24.95-.49-1.53 1.25-.94h-1.53l-.47-1.53zm8 0-1.53-.01 1.25.94-.49 1.53 1.24-.95 1.24.95-.49-1.53 1.25-.94h-1.53l-.47-1.53zm-4-3-1.53-.01 1.25.94-.49 1.53 1.24-.95 1.24.95-.49-1.53 1.25-.94h-1.53l-.47-1.53z" fill="#dcab38"/></svg>

<!-- by TradingView --><svg width="18" height="18" viewBox="0 0 18 18" xmlns="http://www.w3.org/2000/svg"><path fill="#F0F3FA" d="M0 0h18v18H0z"/><path d="m11.03 11.54-1.53-.01 1.25.94-.49 1.53 1.24-.95 1.24.95-.49-1.53 1.25-.94h-1.53L11.5 10l-.47 1.54ZM6.03 11.54l-1.53-.01 1.25.94L5.26 14l1.24-.95 1.24.95-.49-1.53 1.25-.94H6.97L6.5 10l-.47 1.54ZM4.53 7.54 3 7.53l1.25.94L3.76 10 5 9.05l1.24.95-.49-1.53L7 7.53H5.47L5 6l-.47 1.54ZM12.53 7.54 11 7.53l1.25.94-.49 1.53L13 9.05l1.24.95-.49-1.53L15 7.53h-1.53L13 6l-.47 1.54ZM8.53 4.54 7 4.53l1.25.94L7.76 7 9 6.05l1.24.95-.49-1.53L11 4.53H9.47L9 3l-.47 1.54Z" fill="#DCAB38"/></svg>
